X: 7239
T: Clancy's
R: jig
M: 6/8
K: Gmajor
|"G"G2e dBG|"A7"gab "D"afd|"C"e/f/ge "G"dBG|"A7"AGA BGE|
"G"G2e dBG|"A7"gab "D"afd|"C"e/f/ge "Bm"dBA|"Em"Bee e2z:|
"Em"gbe gbe|"Em"g2b "A7"bag|"D"fad fad|"D"faa "B7"agf|
"Em"eBe gfg|"Em"bef "A7"gef|"C"gfe "Bm"dBA|"Em"Bee e2z:|

